packages/icon/src/svg/skip-forward.icon.svg

<svg width="24" height="24" viewBox="0 0 24 24" fill="none" xmlns="http://www.w3.org/2000/svg">
<path fill-rule="evenodd" clip-rule="evenodd" d="M12 2C6.47715 2 2 6.47715 2 12C2 17.5228 6.47715 22 12 22C15.3575 22 18.3286 20.3453 20.1422 17.8069C20.2025 17.7225 20.2753 17.6144 20.3606 17.4825L20.3606 17.4825C20.5106 17.2506 20.4441 16.941 20.2122 16.7911C20.2058 16.7869 20.1993 16.7829 20.1927 16.7791L19.3269 16.274L19.3269 16.274C19.0971 16.14 18.8027 16.2093 18.6568 16.4317C18.5713 16.5621 18.4983 16.6682 18.4379 16.7499C16.9808 18.7215 14.6397 20 12 20C7.58172 20 4 16.4183 4 12C4 7.58172 7.58172 4 12 4C14.2091 4 16.2091 4.89543 17.6569 6.34315L16.8536 7.14645C16.6583 7.34171 16.6583 7.65829 16.8536 7.85355C16.9473 7.94732 17.0745 8 17.2071 8H20.5C20.7761 8 21 7.77614 21 7.5V4.20711C21 3.93096 20.7761 3.70711 20.5 3.70711C20.3674 3.70711 20.2402 3.75979 20.1464 3.85355L19.0711 4.92893C17.2614 3.11929 14.7614 2 12 2ZM8.63003 15.6H10.34V9.00299H9.08903L7.18103 9.55199L7.51403 10.911L8.63003 10.641V15.6ZM14.007 15.726C12.162 15.726 11.001 14.205 11.001 12.342C11.001 10.461 12.18 8.922 14.025 8.922C15.852 8.922 17.022 10.443 17.022 12.306C17.022 14.187 15.843 15.726 14.007 15.726ZM14.025 14.187C14.781 14.187 15.267 13.413 15.267 12.342V12.324C15.267 11.253 14.754 10.461 14.007 10.461C13.251 10.461 12.756 11.226 12.756 12.306V12.324C12.756 13.404 13.26 14.187 14.025 14.187Z" fill="white"/>
</svg>

<svg aria-label="skip forward icon" viewBox="0 0 24 24"><path fill-rule="evenodd" clip-rule="evenodd" d="M12 2C6.477 2 2 6.477 2 12s4.477 10 10 10a9.987 9.987 0 008.142-4.193c.06-.084.133-.193.219-.324a.5.5 0 00-.168-.704l-.866-.505a.5.5 0 00-.67.158A7.989 7.989 0 0112 20a8 8 0 115.657-13.657l-.803.803a.5.5 0 00.353.854H20.5a.5.5 0 00.5-.5V4.207a.5.5 0 00-.854-.353l-1.075 1.075A9.969 9.969 0 0012 2zM8.63 15.6h1.71V9.003H9.089l-1.908.549.333 1.359 1.116-.27V15.6zm5.377.126c-1.845 0-3.006-1.521-3.006-3.384 0-1.881 1.179-3.42 3.024-3.42 1.827 0 2.997 1.521 2.997 3.384 0 1.881-1.179 3.42-3.015 3.42zm.018-1.539c.756 0 1.242-.774 1.242-1.845v-.018c0-1.071-.513-1.863-1.26-1.863-.756 0-1.251.765-1.251 1.845v.018c0 1.08.504 1.863 1.269 1.863z"/></svg>
